X:1
T: Fraser's Fiddle
C:Muriel A Johnstone
R:Reel
%Q: 232
K:F
M:4/4
L:1/8
|:CF AF GF DF|C2 cd cA GA|CF AF GF DF|CD FA GA Bd|
cf af gf df|cf af ga bg|ag fd cA Ac|BA cF GF DF|
C2 ag fd df|cF AG F2 Ac|d2 DC DF DC|DF DC DF DC|
C2 ag fd df|cF AG F2 Ac|d2 DC DF DC|1CD FA GA Bd:|2CD FA G2 F2||
